X:1
T:Fleetwood, 11.11.11 D
T:Fleetwood, 11.11.11 D
T:Henry Fleetwood Sheppard (1824-1901)
T:Public Domain Courtesy of the Cyber Hymnal™
C:Henry Fleetwood Sheppard (1824-1901)
Z:Public Domain
Z:Courtesy of the Cyber Hymnal™
%%score ( 1 2 ) ( 3 4 )
L:1/8
Q:1/4=112
M:4/4
K:D
V:1 treble 
V:2 treble 
V:3 bass 
V:4 bass 
V:1
 [DF]3 [CE] [DF]2 [DG]2 | A4 [DF]4 | [CE]3 [DF] [DG]2 [CA]2 | [DF]8 | [B,B]3 [CB] [DB]2 [EB]2 | %5
 [FA]4 [DF]4 | E3 [CA] [Ec]2 [DB]2 | [CA]8 | D3 [CE] [DF]2 [DG]2 | [CE]4 C4 | %10
 [CE]3 [DF] [CG]2 [CB]2 | [DA]8 | [Dd]3 [DA] [Dc]2 [DB]2 | [DA]4 [^DF]4 | E3 [DE] [CE]2 [CF]2 | %15
 D8 | [DF]3 [EF] [DF]2 [DG]2 | [CF]4 F4 | [EG]3 [EG] [EG]2 [CA]2 | [DF]8 | [Dd]3 A [Ac]2 [GB]2 | %21
 [FA]2 [DF]2 D2 [DG]2 | [DF]4 [CE]4 | !fermata!D6 z2 |] %24
V:2
 x8 | (D2 C2) x4 | x8 | x8 | x8 | x8 | E3 x5 | x8 | D3 x5 | x4 C4 | x8 | x8 | x8 | x8 | E3 x5 | %15
 D8 | x8 | x4 (D2 ^D2) | x8 | x8 | x3 A x4 | x4 D2 x2 | x8 | D6 x2 |] %24
V:3
 [D,A,]3 [A,,A,] [D,A,]2 [B,,G,]2 | (E,2 A,2) [D,A,]4 | [A,,A,]3 [D,A,] [B,,G,]2 [A,,E,]2 | D,8 | %4
 [G,,G,]3 [A,,G,] [B,,G,]2 [C,G,]2 | [D,F,]4 [D,A,]4 | [C,A,]3 [F,A,] [E,A,]2 [E,^G,]2 | [A,,A,]8 | %8
 [D,F,]3 [A,,A,] [D,A,]2 [G,,B,]2 | [A,,A,]4 [A,,A,]4 | [G,A,]3 [F,A,] [E,A,]2 [G,A,]2 | [F,A,]8 | %12
 [F,A,]3 [F,A,] G,2 G,2 | [F,A,]4 [B,,A,]4 | [E,G,]3 [E,^G,] [A,,A,]2 [A,,=G,]2 | [D,F,]8 | %16
 [B,,B,]3 [B,,^A,] [D,B,]2 [E,B,]2 | (B,2 ^A,2) [B,,B,]4 | [E,B,]3 [D,B,] [C,A,]2 [A,,A,]2 | %19
 [D,A,]8 | [F,A,]3 [F,A,] [G,D]2 [B,D]2 | D2 [D,A,]2 [B,,B,]2 [G,,B,]2 | [A,,A,]4 [A,,G,]4 | %23
 !fermata![D,F,]6 z2 |] %24
V:4
 x8 | A,,4 x4 | x8 | D,8 | x8 | x8 | x8 | x8 | x8 | x8 | x8 | x8 | x4 G,2 G,2 | x8 | x8 | x8 | x8 | %17
 F,4 x4 | x8 | x8 | x8 | D2 x6 | x8 | x8 |] %24

